src/assets/images/icons/grid.svg

<?xml version="1.0" encoding="utf-8"?>
<!-- Generator: Adobe Illustrator 16.0.3, SVG Export Plug-In . SVG Version: 6.00 Build 0)  -->
<!DOCTYPE svg PUBLIC "-//W3C//DTD SVG 1.1//EN" "http://www.w3.org/Graphics/SVG/1.1/DTD/svg11.dtd">
<svg version="1.1" id="Layer" xmlns="http://www.w3.org/2000/svg" xmlns:xlink="http://www.w3.org/1999/xlink" x="0px" y="0px"
	 width="400px" height="399px" viewBox="56.5 55.5 400 399" enable-background="new 56.5 55.5 400 399" xml:space="preserve">
<path fill="#F385A8" d="M400,64H112c-26.472,0-48,21.528-48,48v288c0,26.472,21.528,48,48,48h288c26.472,0,48-21.528,48-48V112
	C448,85.528,426.472,64,400,64z M416,112v128H272V96h128C408.824,96,416,103.176,416,112z M112,96h128v144H96V112
	C96,103.176,103.176,96,112,96z M96,400V272h144v144H112C103.176,416,96,408.824,96,400z M400,416H272V272h144v128
	C416,408.824,408.824,416,400,416z"/>
</svg>

<svg xmlns="http://www.w3.org/2000/svg" width="384" height="384" viewBox="0 0 384 384">
  <path id="grid" d="M400,64H112a48.048,48.048,0,0,0-48,48V400a48.048,48.048,0,0,0,48,48H400a48.048,48.048,0,0,0,48-48V112A48.048,48.048,0,0,0,400,64Zm16,48V240H272V96H400A16.016,16.016,0,0,1,416,112ZM112,96H240V240H96V112A16.016,16.016,0,0,1,112,96ZM96,400V272H240V416H112A16.016,16.016,0,0,1,96,400Zm304,16H272V272H416V400A16.016,16.016,0,0,1,400,416Z" transform="translate(-64 -64)" fill="#fd3398"/>
</svg>
